X: 17
T: Jig Of Slurs, The
C: G.S. MacLennan
Z: chansherly212
S: https://thesession.org/tunes/35#setting53876
R: jig
M: 6/8
L: 1/8
K: Gmaj
|:E|D2 G GFG|EGG DGG|EGG DGG|EAA AGA|
D2 G GFG|EGG DGG|EGG FGA|BGG G2:|
|:D2 B BAB|dBB BAG|E2 A AGA|B2A AGE|
D2 B BAB|dBB BAG|EGG FGA|BGG G2:|

%-------------------- TUNE SEPARATOR --------------------%

